svg/invoice_arrow_left.svg

<svg xmlns="http://www.w3.org/2000/svg" viewBox="0 0 24 24"><path d="M21 13.34A6.005 6.005 0 0 0 13 19c0 .65.1 1.28.3 1.86L12 20l-3 2-3-2-3 2V3h18zM18 18v-2l-3 3 3 3v-2h4v-2z"/></svg>

<svg xmlns="http://www.w3.org/2000/svg" id="mdi-invoice-arrow-left" viewBox="0 0 24 24"><path d="M21 13.34C20.37 13.12 19.7 13 19 13C15.69 13 13 15.69 13 19C13 19.65 13.1 20.28 13.3 20.86L12 20L9 22L6 20L3 22V3H21V13.34M18 18V16L15 19L18 22V20H22V18H18Z" /></svg>
